Sources/FrostedUI/Resources/Icons.xcassets/facebook16.imageset/facebook-16.svg

<svg width="16" height="16" viewBox="0 0 16 16" fill="none" xmlns="http://www.w3.org/2000/svg" data-fui-icon="true">
  <path
    d="M8 0.708008C12.0268 0.708184 15.2908 3.97323 15.291 8C15.2909 11.7279 12.4934 14.8009 8.88281 15.2383L8.18262 15.3232V9.41211H10.0898L10.2344 8.625H8.17969V7.2793C8.17973 6.68297 8.2923 6.09935 8.71387 5.68457C9.13289 5.27252 9.71938 5.16318 10.3193 5.16309C10.3688 5.16309 10.4182 5.16469 10.4658 5.16504V4.49121C10.1912 4.4559 9.8681 4.42678 9.64258 4.42676C8.6166 4.42682 7.99775 4.66921 7.62695 5.04785C7.25349 5.42925 7.01372 6.0685 7.01367 7.12207V8.625H5.6377V9.41211H7.01367V15.2695L6.23828 15.0771C3.0626 14.289 0.708157 11.4202 0.708008 8C0.708189 3.97324 3.97325 0.708206 8 0.708008ZM8 1.95801C4.66361 1.95821 1.95819 4.6636 1.95801 8C1.95814 10.5458 3.53416 12.7232 5.76367 13.6123V10.6621H4.3877V7.375H5.76367V7.12207C5.76372 5.90676 6.03797 4.88501 6.73438 4.17383C7.43345 3.45994 8.44232 3.17682 9.64258 3.17676C10.1007 3.17679 10.8875 3.26237 11.2568 3.36426L11.7158 3.49121V6.50391L11.0273 6.43457C10.9036 6.42212 10.6557 6.41309 10.3193 6.41309C9.82758 6.41319 9.65588 6.51144 9.59082 6.5752C9.52866 6.63633 9.42973 6.79881 9.42969 7.2793V7.375H11.7334L11.5986 8.1123L11.2256 10.1494L11.1318 10.6621H9.43262V13.8682C12.0773 13.2241 14.0409 10.8421 14.041 8C14.0408 4.66359 11.3364 1.95818 8 1.95801Z"
    fill="currentColor"
  />
</svg>

<svg xmlns="http://www.w3.org/2000/svg" width="16" height="16" fill="none" data-fui-icon="true" viewBox="0 0 16 16"><path fill="currentColor" d="M8 .708a7.292 7.292 0 0 1 .883 14.53l-.7.085v-5.91h1.907l.144-.788H8.18V7.279c0-.596.112-1.18.534-1.594.419-.412 1.005-.522 1.605-.522l.147.002v-.674a7 7 0 0 0-.823-.064c-1.026 0-1.645.242-2.016.62-.374.382-.613 1.022-.613 2.075v1.503H5.638v.787h1.376v5.858l-.776-.193A7.293 7.293 0 0 1 8 .707m0 1.25a6.043 6.043 0 0 0-2.236 11.654v-2.95H4.388V7.375h1.376v-.253c0-1.215.274-2.237.97-2.948.7-.714 1.708-.997 2.909-.997.458 0 1.244.085 1.614.187l.459.127v3.013l-.689-.07a8 8 0 0 0-.708-.02c-.491 0-.663.097-.728.161-.062.061-.161.224-.161.704v.096h2.303l-.134.737-.373 2.037-.094.513h-1.7v3.206A6.042 6.042 0 0 0 8 1.958"/></svg>
